X:1
T:Lego questo mio
T:Lego questo mio
T:Giovanni Maria Nanino
T:Source : Melodia Olympica---Anversa---P.Phalesio & G.Bellero---1591. Editor: André Vierendeels (07/01/14).
C:Giovanni Maria Nanino
%%score [ 1 2 [ 3 4 ] ]
L:1/8
Q:1/4=100
M:4/4
K:C
V:1 treble nm="Canto" snm="C"
V:2 treble nm="Alto" snm="A"
V:3 treble-8 nm="Tenor 1" snm="T 1"
V:4 treble-8 nm="Tenor 2" snm="T 2"
V:1
 G4 d4- | d4 B4 | B4 ^c4 | d4 d2 d2 | e6 e2 | d2 B2 c4 | c2 d2 e3 e | c2 BA B2 c2 | A4 A4 | %9
w: Le- go|_ que-|sto mio|co- re, con|dol- ci'e|lie- ti sguar-|di, quel fan- ciul-|lin _ _ _ d'A-|mo- re,|
 B4 d4- | d4 c4- | c2 e2 d4 | d4 d2 d2 | d4 d2 e2- | e2 d2 c4 | B6 B2 | c3 G _B2 B2 | A4 A4 | z8 | %19
w: le- go|_ que-|* sto mio|co- re, con|dol- ci'e lie-|* to sguar-|di, quel|fan- ciul- lin d'A-|mo- re,||
 z2 e2 d2 d2 | ^c3 B cd e2- | e2 d2 ^c4 | d8 | z4 G4 | G4 B4 | A4 A4 | z8 | z2 A2 B4- | %28
w: et se ne|fe _ _ _ _|_ sig- no-|re,|hor|ch'io son|se- gno||a suoi|
 B2 B2 AG AB | c2 B2 A4 | B3 G A2 B2 | c2 G2 _B2 B2 | A3 B c2 c2 | d4 G4 | z4 A4 | B8 | z8 | %37
w: _ pun- gen- * * *|* ti dar-|di, m'as- con- d'e|vie- ta'i chia- ri'a-|ma- * * ti|lu- mi,|per-|che,||
 z4 A4 | d8 | e8 | d4 c4 | _B8 | A4 A4- | A4 A4 | _B8 | A4 z2 A2 | d8 | e8 | d4 c4 | _B6 B2 | %50
w: per-|che|di|duol pian-|gen-|d'i mi|_ con-|su-|mi, per-|che|di|duol pian-|gen- d'i|
 A4 G2 G2- | G2 ^FE F4 | G8 |] %53
w: mi con su-||mi.|
V:2
 z8 | G,4 G4- | G4 G4 | A4 B4 | c4 c2 c2 | B3 B A2 G2 | A4 G2 G2 | A3 A G2 FE | ^F2 G2 F4 | G4 D4 | %10
w: |Le- go|_ que-|sto mio|co- re, con|dol- ci'e lie- ti|sguar- di, quel|fan- ciul- lin _ _|_ d'A- mo-|re, le-|
 G4 G4 | A4 A4 | B4 B2 B2 | A6 c2 | G2 G2 G4 | G4 D4 | E3 E F2 G2 | E4 E2 A2 | G2 G2 F3 E | %19
w: go que-|sto mio|co- re, con|dol- ci'e|lie- ti sguar-|di, quel|fan- ciul- lin d'A-|mo- re, et|se ne fe _|
 FG A2 z2 D2 | E4 E4 | z4 A4 | ^F4 F4 | G4 D4 | E3 E E2 D2 | ^C8 | D2 A2 A3 A | G2 ^F2 G4 | D8 | %29
w: _ _ _ si-|gno- re,|hor|ch'io son|se- gno'a|suoi pun- gen- ti|dar-|di, a suoi pun-|gen- ti dar-|di,|
 z2 B,2 C2 D2 | G,2 G2 F2 D2 | E4 D2 E2- | ED CB, A,2 G,2 | A,3 B, CD E2- | EF G4 ^F2 | G8 | z8 | %37
w: m'as- con- d'e|vie- ta'i chia- ri'a-|man- ti lu-||||mi,||
 z8 | z4 D4 | G8 | A8 | G4 F4 | E8 | ^F8 | G6 F2 | E2 C2 c4 | B4 A4- | A2 ^G^F G4 | A4 A4 | G4 F4 | %50
w: |per-|che|di|duol pian-|gen-|d'i|mi _|_ _ _|con- fu-||mi, i|mi con-|
 E8 | D8- | D8 |] %53
w: su-|mi.|_|
V:3
 z8 | d4 e4- | e4 e4 | ^f4 g4 | c4 c2 c2 | g3 g f2 e2 | f4 c2 c2 | f3 f e2 c2 | d4 d4 | G4 g4- | %10
w: |Le- go|_ que-|sto mio|co- re, con|dol- ci'e lie- ti|sguar- di, quel|fan- ciul- lin d'A-|mo- re,|le- go|
 g4 e4 | e4 ^f4 | g4 g2 g2 | ^f6 g2 | c2 d2 e4 | d2 d2 g3 g | g2 e2 d4- | d4 ^c4 | z8 | %19
w: _ que-|sto mio|co- re, con|dol- ci'e|lie- ti sguar-|di, quel fan- ciul-|lin d'A- mo-|* re,||
 z2 e2 f2 g2 | a6 g2 | f2 ed e4 | d8- | d8 | z4 g4 | e4 e4 | f4 c4 | d3 d d2 d2 | GA Bc de fd | %29
w: et se me|fe si-|gno- * * *|re,|_|hor|ch'io son|se- gno'a|suoi pun- gen- ti|dar- * * * * * * *|
 ef g4 ^f2 | g4 z4 | z2 e2 f2 g2 | c6 g2 | f2 d2 e3 d | c2 B2 A4 | G4 G4 | g8 | a8 | g4 f4 | %39
w: |di,|m'as- con- d'e|vie- ta'i|chia- ri'a- man- *|* ti lu-|mi, per-|che|di|duol pian-|
 e4 e4 | f8 | d4 d4- | d2 ^cB c4 | d8- | d4 G4 | c8 | z4 d4 | c4 B4 | A8 | d8 |"^b" c4 B4 | A8 | %52
w: gen- d'i|mi|con su-||mi,|_ per-|che|di|duol pian-|gen-|d'i|mi con|su-|
 G8 |] %53
w: mi.|
V:4
 z8 | z8 | z8 | z8 | z8 | z8 | z8 | z8 | D4 d4- | d4 B4- | B4 c4- | c4 d4 | G4 G2 G2 | d4 d2 c2- | %14
w: ||||||||Le- go|_ que-|* sto|_ mio|co- re, con|dol- ci'e lie-|
 c2 B2 c4 | G6 G2 | c3 c _B2 G2 | A4 A2 A2 |"^-natural" B2 c2 d4- | d2 c2 _B4 | A8- | A8 | z4 d4 | %23
w: * ti sguar-|di, quel|fan- ciul- lin d'A-|mo- re, et|se me fe|_ si- gno-|re,|_|hor|
 B4 B4 | c4 G4 | A3 A A2 A2 | DE FG AB cA | Bc d2 G4 | z8 | z8 | z2 E2 F2 G2 | C2 c2 _B2 G2 | %32
w: ch'io son|se- gno'a|suoi pun- gen- tii|dar- * * * * * * *|* * * di,|||m'as- con- de|vie- ta'i chia- ri'a-|
 A3 G F2 E2 | D4 C4 | z4 D4 | d8 | e8 | d4 c4 | B8 | c8 | F8 | G8 | A8 | D4 D4 | G8 | A8 | G4 F4 | %47
w: man- * * ti|lu- mi,|per-|che|di|duol pian-|gen-|d'i|mi|con|su-|mi, per-|che|di|duol pian-|
 E8 | F8 | _B,8 | C8 | D8 | G8 |] %53
w: gen-|d'i|mi|con-|su-|mi.|

